assets/img/IconLogoWhite.svg

<svg width="72" height="72" viewBox="0 0 72 72" fill="none" xmlns="http://www.w3.org/2000/svg">
<path d="M0 14.4C0 6.4471 6.4471 0 14.4 0H57.6C65.5529 0 72 6.4471 72 14.4V57.6C72 65.5529 65.5529 72 57.6 72H14.4C6.4471 72 0 65.5529 0 57.6V14.4Z" fill="#FFFDEF"/>
<path d="M37.962 49.81L49.1992 49.2571V56.9579C49.1992 58.7595 47.1125 59.6496 45.9142 58.3591L37.962 49.81Z" fill="#07021A"/>
<path d="M12.8 29.6513C12.8 25.1529 12.8 22.9038 13.6345 21.1856C14.3685 19.6743 15.5398 18.4455 16.9804 17.6755C18.6181 16.8 20.762 16.8 25.0498 16.8H47.4695C51.7574 16.8 53.9013 16.8 55.539 17.6755C56.9796 18.4455 58.1508 19.6743 58.8849 21.1856C59.7193 22.9038 59.7193 25.1529 59.7193 29.6513V37.3486C59.7193 41.847 59.7193 44.0962 58.8849 45.8143C58.1508 47.3256 56.9796 48.5544 55.539 49.3244C53.9013 50.1999 51.7574 50.1999 47.4695 50.1999H25.0498C20.762 50.1999 18.6181 50.1999 16.9804 49.3244C15.5398 48.5544 14.3685 47.3256 13.6345 45.8143C12.8 44.0962 12.8 41.847 12.8 37.3486V29.6513Z" fill="#07021A"/>
<path d="M20.2918 35.5775C19.8367 31.7283 19.6092 29.8038 20.3112 28.3002C20.6369 27.6024 21.0971 26.983 21.6625 26.4811C22.8808 25.3997 24.7153 25.161 28.3842 24.6836L41.7669 22.9423C45.4636 22.4613 47.3119 22.2208 48.7509 22.966C49.4187 23.3117 50.0104 23.7996 50.4883 24.3986C51.5185 25.6896 51.7324 27.6306 52.1602 31.5125C52.5816 35.3366 52.7923 37.2487 52.0868 38.74C51.7593 39.4323 51.2992 40.0464 50.7353 40.5438C49.5207 41.6153 47.7 41.8522 44.0585 42.326L30.6758 44.0673C27.0068 44.5446 25.1723 44.7833 23.7391 44.0469C23.074 43.7051 22.4835 43.2224 22.0051 42.6292C20.9743 41.3511 20.7468 39.4266 20.2918 35.5775Z" fill="#8CFF31"/>
</svg>

<svg xmlns="http://www.w3.org/2000/svg" width="72" height="72" fill="none" viewBox="0 0 72 72"><path fill="#FFFDEF" d="M0 14.4C0 6.447 6.447 0 14.4 0h43.2C65.553 0 72 6.447 72 14.4v43.2C72 65.553 65.553 72 57.6 72H14.4C6.447 72 0 65.553 0 57.6V14.4Z"/><path fill="#07021A" d="m37.962 49.81 11.237-.553v7.7c0 1.803-2.087 2.693-3.285 1.402l-7.952-8.549Z"/><path fill="#07021A" d="M12.8 29.651c0-4.498 0-6.747.834-8.465a7.854 7.854 0 0 1 3.346-3.51c1.638-.876 3.782-.876 8.07-.876h22.42c4.287 0 6.431 0 8.069.875a7.855 7.855 0 0 1 3.346 3.51c.834 1.719.834 3.968.834 8.466v7.698c0 4.498 0 6.747-.834 8.465a7.855 7.855 0 0 1-3.346 3.51c-1.638.876-3.782.876-8.07.876H25.05c-4.287 0-6.43 0-8.069-.876a7.854 7.854 0 0 1-3.346-3.51c-.834-1.718-.834-3.967-.834-8.465V29.65Z"/><path fill="#8CFF31" d="M20.292 35.578c-.455-3.85-.683-5.774.02-7.278a5.593 5.593 0 0 1 1.35-1.819c1.219-1.081 3.053-1.32 6.722-1.797l13.383-1.742c3.697-.48 5.545-.721 6.984.024.668.346 1.26.834 1.737 1.433 1.03 1.29 1.244 3.232 1.672 7.113.422 3.825.632 5.737-.073 7.228a5.59 5.59 0 0 1-1.352 1.804c-1.214 1.071-3.035 1.308-6.676 1.782l-13.383 1.741c-3.67.478-5.504.716-6.937-.02a5.404 5.404 0 0 1-1.734-1.418c-1.03-1.278-1.258-3.202-1.713-7.051Z"/></svg>
